static/assets/images/exchanges/thorswap.svg

<svg width="256" height="256" viewBox="0 0 256 256" fill="none" xmlns="http://www.w3.org/2000/svg">
<path d="M245.955 78.182C239.507 62.9397 230.275 49.2482 218.526 37.4931C216.282 35.2483 213.97 33.0978 211.589 31.0415C211.324 30.8187 211.058 30.5874 210.793 30.3646C200.893 21.9509 189.846 15.148 177.832 10.0673C162.049 3.38432 145.281 0 128 0C110.727 0 93.9597 3.38432 78.177 10.0587C62.9338 16.5103 49.2406 25.7294 37.4914 37.4845C25.7336 49.2397 16.5106 62.9312 10.0622 78.1734C3.38262 93.9641 0 110.723 0 128.004C0 145.286 3.38262 162.045 10.0622 177.827C16.5106 193.069 25.7422 206.76 37.4914 218.515C39.3925 220.418 41.3536 222.26 43.3575 224.025C43.7343 224.359 44.1196 224.693 44.4964 225.019C54.5758 233.715 65.8711 240.741 78.177 245.941C93.9597 252.616 110.727 256 128 256C145.281 256 162.04 252.616 177.823 245.941C193.066 239.498 206.759 230.271 218.509 218.515C230.266 206.76 239.489 193.069 245.938 177.827C252.609 162.045 256 145.277 256 128.004C256.009 110.723 252.626 93.9641 245.955 78.182ZM128 249.111C99.1064 249.111 72.5422 238.941 51.707 221.994L178.577 168.573L135.133 124.466L135.116 124.483L135.031 124.397L48.0674 218.91C22.8391 196.693 6.89369 164.178 6.89369 128.004C6.89369 61.2261 61.2211 6.89715 128 6.89715C156.542 6.89715 182.807 16.8273 203.531 33.3976L91.5619 80.3583L135.031 124.389L135.048 124.371L135.133 124.457L207.162 36.4221C232.844 58.6472 249.115 91.4622 249.115 128.004C249.115 194.782 194.787 249.111 128 249.111Z" fill="url(#paint0_linear_9884_1030)"/>
<defs>
<linearGradient id="paint0_linear_9884_1030" x1="218.497" y1="37.4675" x2="37.4233" y2="218.45" gradientUnits="userSpaceOnUse">
<stop stop-color="#3EF8F3"/>
<stop offset="1" stop-color="#07AEFE"/>
</linearGradient>
</defs>
</svg>

<svg xmlns="http://www.w3.org/2000/svg" fill="none" viewBox="0 0 256 256"><path fill="url(#paint0_linear_9884_1030)" d="M245.955 78.182c-6.448-15.242-15.68-28.934-27.429-40.689a129 129 0 0 0-6.937-6.452c-.265-.222-.531-.454-.796-.676a127.3 127.3 0 0 0-32.961-20.298C162.049 3.384 145.281 0 128 0c-17.273 0-34.04 3.384-49.823 10.059-15.243 6.451-28.936 15.67-40.686 27.425-11.757 11.756-20.98 25.447-27.429 40.69C3.382 93.963 0 110.722 0 128.003c0 17.282 3.383 34.041 10.062 49.823 6.449 15.242 15.68 28.933 27.43 40.688a126 126 0 0 0 7.004 6.504 127.2 127.2 0 0 0 33.681 20.922C93.96 252.616 110.727 256 128 256c17.281 0 34.04-3.384 49.823-10.059 15.243-6.443 28.936-15.67 40.686-27.426 11.757-11.755 20.98-25.446 27.429-40.688 6.671-15.782 10.062-32.55 10.062-49.823.009-17.281-3.374-34.04-10.045-49.822M128 249.111c-28.894 0-55.458-10.17-76.293-27.117l126.87-53.421-43.444-44.107-.017.017-.085-.086-86.964 94.513C22.84 196.693 6.894 164.178 6.894 128.004 6.894 61.226 61.22 6.897 128 6.897c28.542 0 54.807 9.93 75.531 26.5L91.561 80.359l43.47 44.031.017-.018.085.086 72.029-88.035c25.682 22.225 41.953 55.04 41.953 91.582 0 66.778-54.328 121.107-121.115 121.107"/><defs><linearGradient id="paint0_linear_9884_1030" x1="218.497" x2="37.423" y1="37.468" y2="218.45" gradientUnits="userSpaceOnUse"><stop stop-color="#3EF8F3"/><stop offset="1" stop-color="#07AEFE"/></linearGradient></defs></svg>
